X: 1
T: Cronin's
R: hornpipe
M: 4/4
L: 1/8
K: Gmaj
BA|GA Bd dB de|ga ge de ga|ba ge dB GA|BA AG Ac BA|
GA Bd dB de|ga ge de ga|ba ge dB Ac|AG GF G2:|
|:(3efg|af d^c d2 ga|be ed e2 ga|bg (3agf ge dB|BA AG Ac BA|
GA Bd dB de|ga ge de ga|ba ge dB AB|G2 GF G2:|


Tune 478	Setting 25384

